X: 11
T:Banks of the Ohio
M:4/4
L:1/8
Q:1/8=240
C:Traditional - Arr. Tim O'Brien
K:A
[c2A2][c2A2][e2c2]| "A"[ec][ec][ec][ec] [ec][ec][ec][ec]|
[e2c2][cA][cA][B2G2][c2A2]| "E"[dB][dB][dB][dB] [dB][dB][dB][dB]|
[d2B2][dB][dB] [d2B2][e2c2]| "D"[fd][fd][fd][fd] [fd][fd][fd][fd]|
[f2d2][ge][ge][g2e2][f2d2]|!
 "A"[ec][ec][ec][ec] [ec][ec][ec][ec]|e2[e/c/][e/c
/][ec][e2c2][f2d2]|
"A7"[=ge][ge][ge][ge] [ge][ge][ge][ge]|
[=g2e2][ec][ec][d2B2][c2A2]|!
"D"[fd][fd][fd][fd] [fd][fd][fd][fd]| [f2d2][cA][cA][c2A2][d2B2]|
"A"[ec][ec][ec][ec] [ec][ec][ec][ec]| !
e2c2][ec][fd] "E"[e2c2][d2B2]|"A"[cA][cA][cA][cA] [cA][cA][cA][cA]| [c8A
8]|
